world_stage/static/flags/rect/fin.svg

<svg height="1466.6667" viewBox="0 0 2200 1466.6667" width="2200" xmlns="http://www.w3.org/2000/svg"><g transform="matrix(1.3333333 0 0 -1.3333333 0 1466.6667)"><path d="m0 0h1650v1100h-1650z" fill="#fff"/><g fill="#003580"><path d="m0 400h1650v300.001h-1650z"/><path d="m433 0h300v1100h-300z"/></g></g></svg>

<?xml version="1.0" encoding="UTF-8" standalone="no"?>
<!-- Created with Inkscape (http://www.inkscape.org/) -->

<svg
   version="1.1"
   id="svg1"
   width="2200"
   height="1466.6667"
   viewBox="0 0 2200 1466.6667"
   sodipodi:docname="fi.ai"
   xmlns:inkscape="http://www.inkscape.org/namespaces/inkscape"
   xmlns:sodipodi="http://sodipodi.sourceforge.net/DTD/sodipodi-0.dtd"
   xmlns="http://www.w3.org/2000/svg"
   xmlns:svg="http://www.w3.org/2000/svg">
  <defs
     id="defs1" />
  <sodipodi:namedview
     id="namedview1"
     pagecolor="#ffffff"
     bordercolor="#000000"
     borderopacity="0.25"
     inkscape:showpageshadow="2"
     inkscape:pageopacity="0.0"
     inkscape:pagecheckerboard="0"
     inkscape:deskcolor="#d1d1d1">
    <inkscape:page
       x="0"
       y="0"
       inkscape:label="1"
       id="page1"
       width="2200"
       height="1466.6667"
       margin="0"
       bleed="0" />
  </sodipodi:namedview>
  <g
     id="layer-MC0"
     inkscape:groupmode="layer"
     inkscape:label="Layer 1">
    <path
       id="path1"
       d="M 0,0 H 1650 V 1100 H 0 Z"
       style="fill:#ffffff;fill-opacity:1;fill-rule:nonzero;stroke:none"
       transform="matrix(1.3333333,0,0,-1.3333333,0,1466.6667)" />
    <path
       id="path2"
       d="M 0,400 H 1650 V 700.001 H 0 Z"
       style="fill:#003580;fill-opacity:1;fill-rule:nonzero;stroke:none"
       transform="matrix(1.3333333,0,0,-1.3333333,0,1466.6667)" />
    <path
       id="path3"
       d="M 433,0 H 733 V 1100 H 433 Z"
       style="fill:#003580;fill-opacity:1;fill-rule:nonzero;stroke:none"
       transform="matrix(1.3333333,0,0,-1.3333333,0,1466.6667)" />
  </g>
</svg>
